src/assets/images/icons/calendar.svg

<svg width="24" height="24" viewBox="0 0 24 24" fill="none" xmlns="http://www.w3.org/2000/svg">
<path d="M16 2V6M8 2V6M3 10H21M5 4H19C20.1046 4 21 4.89543 21 6V20C21 21.1046 20.1046 22 19 22H5C3.89543 22 3 21.1046 3 20V6C3 4.89543 3.89543 4 5 4Z" stroke="#181D27" stroke-width="2" stroke-linecap="round" stroke-linejoin="round"/>
</svg>

<svg xmlns="http://www.w3.org/2000/svg" fill="none" viewBox="0 0 24 24"><path stroke="#181D27" stroke-linecap="round" stroke-linejoin="round" stroke-width="2" d="M16 2v4M8 2v4m-5 4h18M5 4h14a2 2 0 0 1 2 2v14a2 2 0 0 1-2 2H5a2 2 0 0 1-2-2V6a2 2 0 0 1 2-2"/></svg>
